X:468540
T:Irish Washerwoman
H:
C: Pipe Major J Wilson 
B: Scots Guards I
O:Kevin Fraser
Z:Kevin Fraser
Q:3/8=120
K:HP
M:6/8
L:1/8
R:Jig
U: R = ///
U: r = //
U: V = !accent!
V:M gstem=up stem=down name="Melody"
V:H gstem=up stem=down name="Harmony"
V:C gstem=up stem=down name="C-Harmony"
V:S gstem=up stem=down dyn=up stafflines=1 clef=perc middle=G name="Snare" sname="Snare"
V:B gstem=up stem=down clef=none dyn=up name="Bass"
V:T gstem=up stem=down clef=none dyn=up name="Tenor"
V:BB gstem=up stem=down name="Brass Bass" sname="ABCD-C" transpose=-1  octave=-1 clef=bass
V:BC gstem=up stem=down name="Brass Chord" sname="ABCD-D" transpose=-1
V:BD gstem=up stem=down name="Brass Chord 2" sname="ABCD-B" transpose=-1
V:P gstem=up stem=down name="Piano" octave=-1
I:MIDI=program 110
%%MIDI gracedivider 4
%%MIDI gchord
%%MIDI beatstring 
I:linebreak $
% %score {M S}
%%score {M}
%%MIDI program 109 #bagpipes
%%MIDI vol 100
[V:M] [|:a | {fg}f>d{G}d {g}A>d{G}d  | {g}f>df     {ag}a>g{a}f | {a}g>e{A}e {g}c>e{A}e | {g}A>{d}ce {a}g>f{g}e | $
[V:M]    x | {fg}f>d{G}d {g}A>d{G}d  | {g}f>df     {ag}a>g{a}f | g>{a}fg {a}e<ag | {g}f>d{A}d {gdG}d2 :|] $
[V:M] [|:a | {fg}f>d{G}d {ag}a>d{G}d | {fg}f>d{G}d {ag}a>g{a}f | {a}g>e{A}e {g}c>e{A}e | {g}A>{d}ce {a}g>f{g}e | $
[V:M]    x | {fg}f>d{G}d {ag}a>d{G}d | {fg}f>d{G}d {ag}a>g{a}f | g>{a}fg {a}e<ag | {g}f>d{A}d {gdG}d2 :|] $
[V:M] [|:a | f<af        {gde}d>cd   | {g}A>d{g}f  {ag}a>g{a}f | {a}g>fg {gef}e>ce | {g}A>{d}ce {a}g>f{g}e | $
[V:M]    x | {g}f<af        {gde}d>cd   | {g}A>d{g}f  {ag}a>g{a}f | {a}g>fg  {a}e<ag | {g}f>d{A}d {gdG}d2 :|] $
[V:M] [|:e | {g}f2{GdG}f a>g{a}f     | {g}A>d{g}f  {ag}a>g{a}f | {g}e2{GdG}e {a}g>f{g}e | {g}A>{d}ce {a}g>f{g}e | $
[V:M]    x | [1{g}f2{GdG}f a>g{a}f     | {g}A>d{g}f  {ag}a>g{a}f | {g}e2{GdG}e {a}g>f{g}e | {g}f>d{A}d {gdG}d2 :| $
[V:M]    x | [2{g}f<af        {gde}d>cd   | {g}A>d{g}f  {ag}a>g{a}f | {a}g>fg  {a}e<ag | {g}f>d{A}d {gdG}d2 |] $

